public/logos/electron-mono.svg

<svg width="256" height="256" viewBox="0 0 256 256" fill="none" xmlns="http://www.w3.org/2000/svg">
  <path fill-rule="evenodd" clip-rule="evenodd" d="M230 128C230 184.333 184.333 230 128 230C71.667 230 26 184.333 26 128C26 71.667 71.667 26 128 26C184.333 26 230 71.667 230 128ZM127.695 69.385C131.631 69.385 135.044 67.1496 136.735 63.8792C151.404 72.2612 162.141 100.056 162.141 132.357C162.141 146.045 160.23 159.156 156.69 170.471C156.602 170.739 156.568 171.021 156.59 171.302C156.612 171.583 156.69 171.856 156.819 172.107C156.948 172.357 157.125 172.58 157.34 172.761C157.556 172.942 157.805 173.079 158.074 173.163C158.343 173.247 158.626 173.277 158.906 173.251C159.187 173.225 159.459 173.143 159.708 173.011C159.956 172.878 160.176 172.698 160.354 172.48C160.533 172.262 160.666 172.011 160.746 171.741H160.745C164.419 160.004 166.391 146.465 166.391 132.357C166.391 98.0528 154.692 68.3603 137.856 59.6532C137.862 59.5077 137.865 59.3615 137.865 59.2145C137.865 53.5973 133.312 49.0439 127.695 49.0439C122.078 49.0439 117.524 53.5973 117.524 59.2145C117.524 64.8316 122.078 69.385 127.695 69.385ZM127.695 65.1352C126.125 65.1352 124.619 64.5114 123.508 63.4011C122.398 62.2907 121.774 60.7848 121.774 59.2145C121.774 57.6442 122.398 56.1382 123.508 55.0278C124.619 53.9175 126.125 53.2937 127.695 53.2937C129.265 53.2937 130.771 53.9175 131.881 55.0278C132.992 56.1382 133.616 57.6442 133.616 59.2145C133.616 60.7848 132.992 62.2907 131.881 63.4011C130.771 64.5114 129.265 65.1352 127.695 65.1352ZM129.248 139.549C125.275 140.407 121.362 137.883 120.502 133.91C120.09 132.003 120.453 130.01 121.511 128.37C122.568 126.729 124.233 125.576 126.141 125.164C130.113 124.306 134.027 126.83 134.887 130.803C135.746 134.775 133.221 138.689 129.248 139.549ZM127.695 207.624C114.644 207.624 103.037 195.426 95.9417 175.616H95.9425C95.8418 175.352 95.7948 175.07 95.8043 174.787C95.8139 174.505 95.8797 174.227 95.9979 173.97C96.1162 173.713 96.2845 173.483 96.493 173.292C96.7015 173.101 96.9461 172.953 97.2123 172.858C97.4785 172.763 97.761 172.721 98.0434 172.737C98.3257 172.752 98.6022 172.824 98.8565 172.947C99.1109 173.07 99.3381 173.243 99.5247 173.456C99.7114 173.668 99.8538 173.916 99.9436 174.184C106.501 192.494 116.853 203.373 127.695 203.373C135.492 203.373 143.073 197.788 149.245 187.522C149.386 187.278 149.575 187.066 149.8 186.896C150.024 186.726 150.28 186.602 150.553 186.532C150.826 186.462 151.11 186.447 151.389 186.487C151.668 186.528 151.935 186.624 152.177 186.769C152.418 186.914 152.628 187.106 152.795 187.333C152.962 187.56 153.082 187.818 153.148 188.092C153.214 188.366 153.225 188.65 153.18 188.928C153.135 189.206 153.036 189.472 152.887 189.712C146.02 201.135 137.213 207.624 127.695 207.624ZM190.597 159.489C196.214 159.489 200.767 164.042 200.767 169.659C200.767 175.276 196.214 179.83 190.597 179.83C188.383 179.83 186.335 179.123 184.665 177.922C168.44 187.467 137.448 182.598 108.284 165.76C95.8692 158.593 84.983 149.956 76.6039 140.748C76.4148 140.542 76.2682 140.3 76.1727 140.037C76.0771 139.774 76.0345 139.495 76.0471 139.215C76.0597 138.936 76.1274 138.662 76.2463 138.408C76.3651 138.155 76.5328 137.928 76.7398 137.739C76.9467 137.551 77.1888 137.405 77.4521 137.311C77.7155 137.216 77.9949 137.175 78.2743 137.188C78.5538 137.202 78.8278 137.271 79.0806 137.391C79.3334 137.511 79.5601 137.679 79.7476 137.887C87.8239 146.763 98.3658 155.127 110.41 162.08C137.933 177.971 166.918 182.7 181.754 174.687C180.909 173.204 180.426 171.488 180.426 169.659C180.426 164.042 184.98 159.489 190.597 159.489ZM186.829 174.226C186.793 174.158 186.752 174.091 186.708 174.027C186.549 173.794 186.346 173.594 186.109 173.441C186.066 173.413 186.022 173.387 185.977 173.362C185.628 172.927 185.341 172.443 185.127 171.925C184.829 171.207 184.676 170.437 184.676 169.659C184.676 168.089 185.3 166.583 186.41 165.473C187.521 164.362 189.027 163.738 190.597 163.738C192.167 163.738 193.673 164.362 194.784 165.473C195.894 166.583 196.518 168.089 196.518 169.659C196.518 170.437 196.365 171.207 196.067 171.925C195.769 172.643 195.333 173.296 194.784 173.846C194.234 174.396 193.581 174.832 192.863 175.129C192.144 175.427 191.374 175.58 190.597 175.58C189.819 175.58 189.049 175.427 188.331 175.129C187.787 174.904 187.281 174.599 186.829 174.226ZM74.8174 169.659C74.8174 175.276 70.264 179.83 64.646 179.83C59.0297 179.83 54.4755 175.276 54.4755 169.659C54.4755 165.835 56.5861 162.504 59.7055 160.767C58.1736 141.758 78.1533 116.277 108.347 98.8447C120.888 91.6043 133.947 86.4645 146.216 83.8356C146.491 83.772 146.775 83.7637 147.053 83.8113C147.331 83.8588 147.597 83.9612 147.835 84.1125C148.073 84.2638 148.278 84.461 148.44 84.6925C148.601 84.924 148.714 85.1852 148.773 85.461C148.832 85.7368 148.836 86.0216 148.784 86.2987C148.731 86.5759 148.625 86.8399 148.47 87.0754C148.314 87.3109 148.114 87.5132 147.88 87.6704C147.646 87.8277 147.383 87.9367 147.106 87.9913C135.283 90.5245 122.638 95.501 110.472 102.525C82.0371 118.942 63.2348 142.604 63.8869 159.517C64.1376 159.498 64.3907 159.489 64.646 159.489C70.2632 159.489 74.8174 164.042 74.8174 169.659ZM60.4594 173.846C61.5698 174.956 63.0758 175.58 64.646 175.58C66.2163 175.58 67.7223 174.956 68.8327 173.846C69.943 172.735 70.5668 171.229 70.5668 169.659C70.5668 168.089 69.943 166.583 68.8327 165.473C67.7223 164.362 66.2163 163.738 64.646 163.738C63.0758 163.738 61.5698 164.362 60.4594 165.473C59.3491 166.583 58.7253 168.089 58.7253 169.659C58.7253 171.229 59.3491 172.735 60.4594 173.846ZM106.087 83.1281C85.3647 79.3541 68.9794 83.3042 62.449 94.615C57.5761 103.056 58.9691 114.246 65.8278 126.208C65.9632 126.456 66.1469 126.675 66.368 126.852C66.5892 127.028 66.8434 127.159 67.1157 127.236C67.3879 127.313 67.6729 127.335 67.9537 127.3C68.2345 127.265 68.5056 127.175 68.7511 127.034C68.9965 126.894 69.2114 126.705 69.3831 126.48C69.5548 126.255 69.6798 125.998 69.7509 125.725C69.822 125.451 69.8376 125.165 69.797 124.885C69.7563 124.605 69.6601 124.336 69.5141 124.094C63.3367 113.318 62.1343 103.661 66.1298 96.7403C71.5549 87.3443 86.1696 83.8206 105.326 87.3093C105.876 87.4009 106.441 87.2724 106.897 86.9514C107.354 86.6305 107.666 86.1428 107.766 85.5938C107.866 85.0448 107.746 84.4785 107.432 84.0171C107.118 83.5558 106.635 83.2365 106.087 83.1281ZM181.088 138.163C194.657 122.133 199.394 106.01 192.878 94.7233C188.083 86.4174 177.946 82.0322 164.473 81.8569C163.915 81.8578 163.379 82.0783 162.982 82.4708C162.585 82.8634 162.358 83.3964 162.351 83.9547C162.344 84.513 162.557 85.0517 162.943 85.4544C163.33 85.8571 163.86 86.0914 164.418 86.1067C176.534 86.2645 185.268 90.0424 189.198 96.8485C194.61 106.224 190.385 120.601 177.844 135.417C177.66 135.629 177.52 135.876 177.432 136.143C177.344 136.41 177.31 136.692 177.331 136.972C177.353 137.252 177.43 137.525 177.558 137.776C177.686 138.026 177.863 138.248 178.077 138.43C178.292 138.612 178.54 138.749 178.808 138.834C179.076 138.919 179.358 138.95 179.638 138.925C179.918 138.9 180.191 138.82 180.439 138.689C180.688 138.558 180.909 138.379 181.088 138.163Z" fill="currentColor" />
</svg>

<svg width="256" height="256" viewBox="0 0 256 256" fill="none" xmlns="http://www.w3.org/2000/svg">
  <path fill-rule="evenodd" clip-rule="evenodd" d="M230 128c0 56.333-45.667 102-102 102S26 184.333 26 128 71.667 26 128 26s102 45.667 102 102ZM127.695 69.385a10.17 10.17 0 0 0 9.04-5.506c14.669 8.382 25.406 36.177 25.406 68.478 0 13.688-1.911 26.799-5.451 38.114a2.129 2.129 0 0 0 .65 2.29 2.133 2.133 0 0 0 2.368.25 2.137 2.137 0 0 0 1.038-1.27h-.001c3.674-11.737 5.646-25.276 5.646-39.384 0-34.304-11.699-63.997-28.535-72.704.006-.145.009-.291.009-.438 0-5.618-4.553-10.171-10.17-10.171s-10.171 4.553-10.171 10.17c0 5.618 4.554 10.171 10.171 10.171Zm0-4.25a5.923 5.923 0 0 1-5.921-5.92 5.922 5.922 0 0 1 5.921-5.921 5.92 5.92 0 0 1 4.186 10.107 5.92 5.92 0 0 1-4.186 1.734Zm1.553 74.414a7.358 7.358 0 1 1-3.107-14.385 7.358 7.358 0 0 1 3.107 14.385Zm-1.553 68.075c-13.051 0-24.658-12.198-31.753-32.008a2.126 2.126 0 1 1 4.002-1.432c6.557 18.31 16.909 29.189 27.751 29.189 7.797 0 15.378-5.585 21.55-15.851a2.115 2.115 0 0 1 2.144-1.035 2.136 2.136 0 0 1 1.406.846 2.118 2.118 0 0 1 .385 1.595 2.13 2.13 0 0 1-.293.784c-6.867 11.423-15.674 17.912-25.192 17.912Zm62.902-48.135c5.617 0 10.17 4.553 10.17 10.17s-4.553 10.171-10.17 10.171c-2.214 0-4.262-.707-5.932-1.908-16.225 9.545-47.217 4.676-76.381-12.162-12.415-7.167-23.301-15.804-31.68-25.012a2.124 2.124 0 0 1 .848-3.437 2.13 2.13 0 0 1 1.629.08c.252.12.48.288.667.496 8.076 8.876 18.618 17.24 30.662 24.193 27.523 15.891 56.508 20.62 71.344 12.607a10.124 10.124 0 0 1-1.328-5.028c0-5.617 4.554-10.17 10.171-10.17Zm-3.768 14.737a2.116 2.116 0 0 0-.852-.864 5.91 5.91 0 0 1-1.301-3.703 5.92 5.92 0 1 1 2.153 4.567Zm-112.012-4.567c0 5.617-4.553 10.171-10.171 10.171-5.616 0-10.17-4.554-10.17-10.171 0-3.824 2.11-7.155 5.23-8.892-1.532-19.009 18.447-44.49 48.641-61.922 12.541-7.24 25.6-12.38 37.869-15.01a2.122 2.122 0 0 1 2.224.858 2.124 2.124 0 0 1-.56 2.977 2.123 2.123 0 0 1-.774.321c-11.823 2.534-24.468 7.51-36.634 14.534-28.435 16.417-47.237 40.079-46.585 56.992.25-.019.504-.028.759-.028 5.617 0 10.171 4.553 10.171 10.17Zm-14.358 4.187a5.922 5.922 0 0 0 10.108-4.187 5.92 5.92 0 0 0-10.108-4.186 5.92 5.92 0 0 0 0 8.373Zm45.628-90.718c-20.722-3.774-37.108.176-43.638 11.487-4.873 8.441-3.48 19.631 3.379 31.593a2.137 2.137 0 0 0 1.288 1.028 2.117 2.117 0 0 0 1.635-.202 2.114 2.114 0 0 0 1-1.309 2.13 2.13 0 0 0-.237-1.631c-6.177-10.776-7.38-20.433-3.384-27.354 5.425-9.396 20.04-12.92 39.196-9.43a2.124 2.124 0 0 0 .761-4.182Zm75.001 55.035c13.569-16.03 18.306-32.153 11.79-43.44-4.795-8.306-14.932-12.69-28.405-12.866a2.126 2.126 0 0 0-.055 4.25c12.116.157 20.85 3.935 24.78 10.742 5.412 9.375 1.187 23.752-11.354 38.568a2.12 2.12 0 0 0-.286 2.359 2.14 2.14 0 0 0 1.25 1.058 2.121 2.121 0 0 0 2.28-.671Z" fill="currentColor"/>
</svg>
